!!!OTL: DIE FENSTER AUF DIE HERZEN AUF
!!!ARE: Europa, Mitteleuropa, Deutschland
!!!SCT: F0248
!!!YEM: Copyright 1995, estate of Helmut Schaffrath.
**kern
*ICvox
*Ivox
*M3/4
*k[b-e-]
*B-:
{8cc
=1
8.dd
16cc
8b-
8cc
8dd
8ee-
=2
2ff
8r}
{8ff
=3
8ee-
16ee-
16ee-
8ee-
16ee-
16ee-
8ee-
16ee-
16ee-
=4
8dd
8dd
4.r}
{8dd
=5
8.cc
16b-
8a
8b-
8cc
8dd
=6
4.cc}
{8cc
8cc
8cc
=7
8.dd
16dd
8dd
8ee-
8dd}
{8dd
=8
4.een
8dd
8een
8dd
=9
8.een
16een
8een}
{8een
8een
8een
=10
8.ff
16ee-
8dd
8cc
8b-
16r}
{16b-
=11
8cc
16cc
16cc
8cc
16cc
16cc
8cc
16b-
16cc
=12
8dd
8dd
4.r}
{8cc
=13
8dd
8dd
4.r}
==
!!!AGN: Jugend - Lied, Jahreszeiten, Fruehling
!!!ONB: ESAC (Essen Associative Code) Database: FINK
!!!AMT: simple triple
!!!AIN: vox
!!!EED: Helmut Schaffrath
!!!EEV: 1.0
*-
